!!!COM: Bach, Johann Sebastian
!!!OPR: Joh. Seb. Bachs vierstimmige Choralgesänge
!!!XEN: Four-part Chorales
!!!OTL: Chorale 117. Komm, Gott Schöpfer, heiliger Geist
!!!SCT: BWV 370
!!!SCA: Thematisch-systematisches Verzeichnis der musikalischen Werke Johann Sebastian Bach: Bach-Werke-Verzeichnis (Schmieder)
!!!YOR: Bach Gesellschaft Edition xxxix
!!!ENC: Steven Rasmussen
!!!CDT: 1685/3//-1750/7/28/
!!!OCY: Deutschland
!!!YEC: Copyright (c) 1994, 2000 Center for Computer Assisted Research in the Humanities
!!!YEM: Rights to all derivative editions reserved
!!!YEN: United States of America
**kern	**kern	**kern	**kern	**silbe
*I:[BASSO]	*I:[TENORE]	*I:[ALTO]	*I:[SOPRANO]	*I:[SOPRANO]
*clefF4	*clefGv2	*clefG2	*clefG2	*
*k[]	*k[]	*k[]	*k[]	*
*C:	*C:	*C:	*C:	*
*M4/4	*M4/4	*M4/4	*M4/4	*
4G	4B	8dL	4g	Komm,
.	.	8eJ	.	.
=1	=1	=1	=1	=1
4F	4c	4f	4a	Gott
4C	4c	8fL	4g	SchÃ¶-
.	.	8eJ	.	.
4D	4A	8eL	4f	-pfer,
.	.	16dL	.	.
.	.	16cJJ	.	.
4E	8GL	8BL	4g	hei-
.	16cL	8eJ	.	.
.	16BJJ	.	.	.
=2	=2	=2	=2	=2
4AA	8cL	8eL	4cc	-li-
.	8fJ	8cJ	.	.
4GG	4B	8gL	4dd	-ger
.	.	8fJ	.	.
4C;	4G;	4e;	4cc;	Geist,
4F	4A	8cL	4cc	be-
.	.	8dJ	.	.
=3	=3	=3	=3	=3
4E	8BL	4e	4g	-such'
.	8cJ	.	.	.
4D	4d	4f	4b	das
4.C	4e	4g	4cc	Herz
.	4d	4g	4dd	der
8BB	.	.	.	.
=4	=4	=4	=4	=4
4C	8dL	4g	4ee	Men-
.	16cL	.	.	.
.	16BJJ	.	.	.
4CC	8cL	8gL	4ee	-schen
.	8AJ	8f#J	.	.
4GG;	4B;	4g;	4dd;	dein,
4G	4B	4g	4dd	mit
=5	=5	=5	=5	=5
4C	8cL	4g	8eeL	Gna-
.	8BJ	.	8ddJ	.
4E	4c	4g	4cc	-den
4F	4c	8gL	4a	sie
.	.	8fJ	.	.
4c	4c	8fL	4g	fÃ¼ll'
.	.	8eJ	.	.
=6	=6	=6	=6	=6
8GL	4d	4g	4b	wie
8FJ	.	.	.	.
4E	4e	4g	4cc#	du
4D;	4f;	4a;	4dd;	weisst,
4E	4B	4e	4g	dass
=7	=7	=7	=7	=7
8AAL	4A	8eL	4cc	dein
8BBJ	.	8dJ	.	.
4C	4A	4e	4a	Ge-
4D	8AL	8eL	4f	-schÃ¶pf
.	8B-J	16dL	.	.
.	.	16eJJ	.	.
4AA	4c	4f	4a	soll
=8	=8	=8	=8	=8
4BB	4d	4f	4g	fÃ¼r
4C	8dL	4e	4g	dir
.	8cJ	.	.	.
4GG;	(8cL	4d;	4g;	sein.
.	8B;J)	.	.	.
==|!	==|!	==|!	==|!	==|!
*-	*-	*-	*-	*-
!!!RWG: Key is interpreted using the Humdrum key tool.
!!!URL-pdf: https://s9.imslp.org/files/imglnks/usimg/6/6b/IMSLP24489-PMLP09471-CCARH_Bach_Chorales.pdf#page=81 Musedata edition
!!!URL-pdf: https://s9.imslp.org/files/imglnks/usimg/7/7a/IMSLP04155-Bach_-_BGA_253-438.pdf#page=64 	Bach-Gesellschaft Ausgabe, Band 39 (pp.175-276) Leipzig: Breitkopf und Härtel, 1892. Plate B.W. XXXIX.
!!!END: 1994/07/13
!!!EMD: Converted from MuseData to Humdrum Dec 19, 2000, by Andreas Kornstaedt using muse2kern.
!!!EED: Craig Stuart Sapp
!!!EEV: 2024/03/31
!!!filter-keyboard: satb2gs
!!!title: @{OTL} (@{SCT})
